X: 1
T: Red House
T: Where Would Bonnie Annie Lie
R: reel
B: RSCDS 7-2
S: Henry Playford \`i Dancing Master, 9th edition (1695)
N: 17th. century as "The Red House".  Later renamed "Where would bonnie Annie lie"
N: from words of Allan Ramsey's song, 1724.  in RSCDS from Walshe's Country Dances 1731.
Z: 1997 by John Chambers <jc:trillian.mit.edu>
N:
M: C|
L: 1/8
K: Gm
   BA \
| "Gm"G2g4fe | d4B4 | "F"A2f4ed | c2dc "(D7)"dcBA \
| "Gm"G2g4fe | d4B4 | "Cm"cBAG "D7"^FGA2 | "Gm"B2G2 G2 |]
|: Bc \
| "Gm"dcBA GABc | d4 B4 | "F"cBAG FGAB | c4 A4 \
| "Gm"dcBA GABc | d4 B4 | "Cm"cBAG "D7"^FGA2 | "Gm"B2G2 G2 :|
|: Bc \
| "Bb"d2d2 d2Bc | d2d2 d2AB | "F"c2c2 c2AB | c2c2 c2Bc \
| "Bb"d2d2 d2Bc | "Gm"d2d2 d2AB | "Cm"cBAG "D7"^FGA2 | "Gm"B2G2 G2 :|
